X:1
T:085 - Cantai Louvores
T:Letra: Henry Maxwell Wright (1849-1931)
T:Música: Anônimo, de SALVATION ARMY MUSIC
M:4/4
L:1/8
Q:1/4=90
K:F
V:1
c | "F"cc =Bc dc AF | "C7"FE E3/^D/ E3B | BB AB ed cB | "F"BA A3/^G/ A2 zA | AA ^GA d3c | "Gm"cB BD G3F | "C"EG c=B dc "C7"_BG | "F"F4 z3 || c | "F"cc =Bc (dc) AF | "C7"E2 B3/B/ B3B | BA Bc (ed) cB | "F"A2 c3/c/ c2 zc | cc =Bc f3A | "Gm"AG ^FG d3d | "C7"dc ed c=B _BG | "F"F6 z |]
w: 1.~Oh, vin-de, cren-tes, een-to-ai Lou-vo-res a Je-sus, Que, pa-raa nos-sa sal-va-ção, Foi mor-to nu-ma cruz; Seu san-gue der-ra-mou, de tu-do me la-vou, Mais al-vo do quea ne-ve me tor-nou!     O san-gue de Je-sus_ me la-vou, me la-vou;    O san-gue de Je-sus_ me la-vou, me la-vou;    A-le-gre can-ta-rei lou-vo-res a meu Rei,     A meu Se-nhor Je-sus que me sal-vou.  
w: 2.~Co-nos-co vin-de vos u-nir Na guer-ra con-trao mal, E, com o nos-so Sal-va-dor, Em mar-cha tri-un-fal, A to-dos pro-cla-mar a gra-çae seu po-der; Seu san-gue der-ra-mou pra nos sal-var!  
w: 3.~O ca-pi-tão da sal-va-ção É Cris-to,o Sal-va-dor; O Rei dos reis, o Re-den-tor, Je-sus, o bom Se-nhor; Pois tu-do ven-ce-rá; vi-tó-ria nos da-rá; À gló-ria, sal-vos, nos con-du-zi-rá.
W: 
W:
W: 1. Oh, vinde, crentes, e entoai
W: Louvores a Jesus,
W: Que, para a nossa salvação,
W: Foi morto numa cruz;
W: Seu sangue derramou, de tudo me lavou,
W: Mais alvo do que a neve me tornou!
W: 
W:    (Estribilho)
W:    O sangue de Jesus me lavou, me lavou;
W:    O sangue de Jesus me lavou, me lavou;
W:    Alegre cantarei louvores a meu Rei,        
W:    A meu Senhor Jesus que me salvou.
W: 
W:
W:
W: 2. Conosco vinde vos unir
W: Na guerra contra o mal,
W: E, com o nosso Salvador,
W: Em marcha triunfal,
W: A todos proclamar a graça e seu poder;
W: Seu sangue derramou pra nos salvar!
W: 
W: 3. O capitão da salvação
W: É Cristo, o Salvador;
W: O Rei dos reis, o Redentor,
W: Jesus, o bom Senhor;
W: Pois tudo vencerá; vitória nos dará;
W: À glória, salvos, nos conduzirá.
W:
W:





%wordsfont Times-Roman 13.0
%vocalfont Times-Roman 13.0
